X: 2
T: The Mullingar Races
R: reel
M: 4/4
L: 1/8
K: Gmaj
D2|GABG ABcA|defd dcBA|BcBG ABAG|FGAB cAFD|\GABG ABcA|defd dcBA|B2d2 cAGF|D(G{A}GF) G2:|(3(def)|g2eg f2ed|gage f2(ed)|defg abag|f2dd (de)dc|\B2BG AFD2|BdBG ABcA|defd cAGF|D(G{A}GF) G2:|


Tune 225	Setting 28353

